X: 25186
T: Major Shanly
R: barndance
M: 4/4
K: Bminor
F2 B2 BABc|A2 F2 G2 F2|Te2 d2 Tc2 Bc|TA4 A4|
Bcde d2 f2|e2 d2 cdcB|^A2 c2 F2 TA2|B4 B4||
de|f2 F2 A2 F2|B2 c2 d2 ed|e2 f2 g2 ag|Tf4 f4|
B2 c2 d2 ec|d2 ec d2 f2|f2 g2 a2 bg|a2 bg a2 d2|
g2 f2 Te2 d2|g2 f2 e2 dc|d2 c2 TB2 ^AB|c4 c2|
F2 F2 F2 G2|A2 A2 A2 dc|B2 B2 B^ABc|Td4 Tc2 =Ac|
{de}f2 B2 T^A2 GF|f2 B2 T^A2 GF|^A2 c2 F2 GA|B4 B2||

